docs/img/icon-widget-stats.svg

<?xml version="1.0" encoding="UTF-8" standalone="no"?>
<svg width="64px" height="64px" viewBox="0 0 64 64" version="1.1" xmlns="http://www.w3.org/2000/svg" xmlns:xlink="http://www.w3.org/1999/xlink" xmlns:sketch="http://www.bohemiancoding.com/sketch/ns">
    <!-- Generator: Sketch 3.3.3 (12072) - http://www.bohemiancoding.com/sketch -->
    <title>icon-widget-stats</title>
    <desc>Created with Sketch.</desc>
    <defs></defs>
    <g id="Page-1" stroke="none" stroke-width="1" fill="none" fill-rule="evenodd" sketch:type="MSPage">
        <g id="Artboard-1" sketch:type="MSArtboardGroup" transform="translate(-177.000000, -197.000000)">
            <g id="icon-widget-stats" sketch:type="MSLayerGroup" transform="translate(177.000000, 197.000000)">
                <g id="Group" sketch:type="MSShapeGroup">
                    <rect id="Rectangle-1" stroke="#2897C5" stroke-width="2" fill="#2897C5" x="0" y="0" width="64" height="64" rx="8"></rect>
                    <circle id="Oval-1" fill="#147CA7" cx="8" cy="8" r="4"></circle>
                    <circle id="Oval-1-Copy" fill="#147CA7" cx="55" cy="8" r="4"></circle>
                    <circle id="Oval-1-Copy-2" fill="#147CA7" cx="55" cy="56" r="4"></circle>
                    <circle id="Oval-1-Copy-3" fill="#147CA7" cx="8" cy="56" r="4"></circle>
                </g>
                <path d="M34.173125,21.71321 C34.7431279,21.71321 35.1824985,21.8736806 35.49125,22.1946267 C35.8000015,22.5155728 35.954375,22.9256645 35.954375,23.4249139 C35.954375,24.0192586 35.7228148,24.542274 35.2596875,24.9939759 C34.7965602,25.4456778 34.2325033,25.6715254 33.5675,25.6715254 C32.9974972,25.6715254 32.5581265,25.5169981 32.249375,25.2079389 C31.9406235,24.8988797 31.7981249,24.470958 31.821875,23.9241609 C31.821875,23.3773639 32.0296854,22.8721785 32.4453125,22.4085897 C32.8609396,21.9450009 33.4368713,21.71321 34.173125,21.71321 Z M30.50375,39.5434596 C29.3162441,39.5434596 28.9956223,38.485542 29.541875,36.3696751 L30.610625,31.8407917 C30.7768758,31.1751258 30.7768758,30.8422978 30.610625,30.8422978 C30.4681243,30.8422978 30.1475025,30.9492782 29.64875,31.1632423 C29.1499975,31.3772063 28.7225018,31.6030539 28.36625,31.8407917 L27.903125,31.0562608 C28.9718803,30.1290831 30.0940566,29.3802202 31.2696875,28.8096493 C32.4453184,28.2390785 33.3418719,27.9537973 33.959375,27.9537973 C34.8856296,27.9537973 35.0993775,28.9166212 34.600625,30.8422978 L33.35375,35.5851441 C33.163749,36.3459053 33.1993737,36.7262801 33.460625,36.7262801 C33.9831276,36.7262801 34.6837456,36.3696787 35.5625,35.6564651 L36.096875,36.3696751 C35.09937,37.3919479 34.0603179,38.176471 32.9796875,38.7232681 C31.8990571,39.2700651 31.0737528,39.5434596 30.50375,39.5434596 Z" id="Icons/Info" fill="#FFFFFF" sketch:type="MSShapeGroup"></path>
            </g>
        </g>
    </g>
</svg>

<svg width="64" height="64" viewBox="0 0 64 64" xmlns="http://www.w3.org/2000/svg"><title>icon-widget-stats</title><desc>Created with Sketch.</desc><g fill="none" fill-rule="evenodd"><g><g><g transform="translate(-177 -197) translate(177 197)"><rect stroke="#2897C5" stroke-width="2" fill="#2897C5" width="64" height="64" rx="8"/><circle fill="#147CA7" cx="8" cy="8" r="4"/><circle fill="#147CA7" cx="55" cy="8" r="4"/><circle fill="#147CA7" cx="55" cy="56" r="4"/><circle fill="#147CA7" cx="8" cy="56" r="4"/></g><path d="M34.173 21.713c.57 0 1.01.16 1.318.482.31.32.464.73.464 1.23 0 .594-.23 1.117-.694 1.57-.463.45-1.027.677-1.692.677-.57 0-1.01-.155-1.32-.464-.307-.31-.45-.737-.426-1.284 0-.547.208-1.052.623-1.515.416-.465.992-.697 1.728-.697zm-3.67 17.83c-1.187 0-1.507-1.057-.96-3.173l1.068-4.53c.167-.665.167-.998 0-.998-.142 0-.462.107-.96.32-.5.215-.927.44-1.284.68l-.463-.786c1.07-.927 2.19-1.676 3.367-2.246 1.175-.57 2.072-.856 2.69-.856.926 0 1.14.963.64 2.888l-1.246 4.743c-.19.76-.155 1.14.107 1.14.523 0 1.224-.355 2.102-1.07l.535.715c-.998 1.022-2.037 1.806-3.117 2.353-1.08.547-1.906.82-2.476.82z" fill="#fff"/></g></g></g></svg>
